source/Icon/instruction.svg

<svg width="32" height="32" viewBox="0 0 48 48" fill="none" xmlns="http://www.w3.org/2000/svg">
    <rect x="4" y="8" width="40" height="32" rx="2" stroke="#000000" stroke-width="4" stroke-linecap="round" stroke-linejoin="round"/>
    <path d="M4 10C4 8.89543 4.89543 8 6 8H42C43.1046 8 44 8.89543 44 10V16H4V10Z" fill="#2F88FF" stroke="#000000" stroke-width="4" stroke-linecap="round" stroke-linejoin="round"/>
    <path d="M25 23L23 34" stroke="#000000" stroke-width="4" stroke-linecap="round"/>
    <path d="M31 23L37 28L31 34" stroke="#000000" stroke-width="4" stroke-linecap="round" stroke-linejoin="round"/>
    <path d="M17 22.9999L11 27.9999L17 33.9999" stroke="#000000" stroke-width="4" stroke-linecap="round" stroke-linejoin="round"/>
</svg>

<svg width="48" height="48" viewBox="0 0 48 48" fill="none" xmlns="http://www.w3.org/2000/svg"><rect stroke-linejoin="round" stroke-linecap="round" stroke-width="4" stroke="#333" rx="2" height="32" width="40" y="8" x="4"/><path stroke-linejoin="round" stroke-linecap="round" stroke-width="4" stroke="#333" d="M4 10a2 2 0 0 1 2-2h36a2 2 0 0 1 2 2v6H4v-6Z"/><path stroke-linecap="round" stroke-width="4" stroke="#333" d="m25 23-2 11"/><path stroke-linejoin="round" stroke-linecap="round" stroke-width="4" stroke="#333" d="m31 23 6 5-6 6M17 23l-6 5 6 6"/></svg>
